packages/icons/src/battery.svg

<svg width="24" height="24" viewBox="0 0 24 24" fill="none" xmlns="http://www.w3.org/2000/svg">
<path d="M8 22C7.71667 22 7.47917 21.9042 7.2875 21.7125C7.09583 21.5208 7 21.2833 7 21V5C7 4.71667 7.09583 4.47917 7.2875 4.2875C7.47917 4.09583 7.71667 4 8 4H10C10 3.44772 10.4477 3 11 3H13C13.5523 3 14 3.44772 14 4H16C16.2833 4 16.5208 4.09583 16.7125 4.2875C16.9042 4.47917 17 4.71667 17 5V21C17 21.2833 16.9042 21.5208 16.7125 21.7125C16.5208 21.9042 16.2833 22 16 22H8ZM9 12L15 10V6H9V12Z" fill="black"/>
</svg>

<svg xmlns="http://www.w3.org/2000/svg" width="24" height="24" fill="none" viewBox="0 0 24 24">
  <path fill="#000" d="M8 22a.967.967 0 0 1-.713-.288A.968.968 0 0 1 7 21V5c0-.283.096-.52.287-.713A.968.968 0 0 1 8 4h2a1 1 0 0 1 1-1h2a1 1 0 0 1 1 1h2a.97.97 0 0 1 .712.287c.192.192.288.43.288.713v16c0 .283-.096.52-.288.712A.968.968 0 0 1 16 22H8Zm1-10 6-2V6H9v6Z"/>
</svg>
